Yaru++/emotes/16/face-crying.svg

<svg height="16" width="16" xmlns="http://www.w3.org/2000/svg"><ellipse cx="9.300415" cy="12.751357" fill="#37a6e6" rx="1.518347" ry="2.017605" stroke-width="1.227167" transform="matrix(.94204291 -.3354924 .37266056 .92796773 0 0)"/><g stroke-width="1.142857"><path d="m8 0a8 8 0 1 0 0 16 8 8 0 0 0 0-16zm-2.2857143 4.5714286c.6377143 0 1.1782857.4685714 1.1782857 1v.8925714c0 .5325714-.5405714.9645714-1.1782857.9645714s-1.1428571-.432-1.1428571-.9645714v-.8925714c0-.5314286.5051428-1 1.1428571-1zm4.5714283 0c.637715 0 1.142857.432 1.142857.9645714v.928c0 .5325714-.505142.9645714-1.142857.9645714-.637714 0-1.142857-.432-1.142857-.9645714v-.928c0-.5325714.505143-.9645714 1.142857-.9645714zm2 2.6068571c1.380572.5131429 2.338286 1.0708572 2.536 1.7862857a1.1348571 1.1348571 0 0 1 -1.072 1.4285716c-.593143.008-.877714-.246857-1.070857-1.0000001-.190857-.7542858.094857-1.4777143-.393143-2.2148572zm-4.3211426 3.0731433c2.9577146 0 4.5359996 1.12 4.5359996 1.785142v.606858c-.906285-.795429-3.6422853-1.142858-4.5371424-1.142858-.8925715 0-3.4491429-.06629-4.5348572 1.142858v-.605715c0-.851428 1.5771429-1.786285 4.536-1.786285z" fill="#fdc92b"/><path d="m8 0a8 8 0 0 0 -7.9866071 8.3482143 8 8 0 0 1 7.9866071-7.77678573 8 8 0 0 1 7.986607 7.65178573 8 8 0 0 0 -7.986607-8.2232143zm-3.4285714 6.4642857v.5714286c0 .5325714.5051428.9642857 1.1428571.9642857s1.1785714-.4317143 1.1785714-.9642857v-.5714286c0 .5325714-.5408571.9642857-1.1785714.9642857s-1.1428571-.4317143-1.1428571-.9642857zm4.5714284 0v.5714286c0 .5325714.505143.9642857 1.142857.9642857.637715 0 1.142857-.4317143 1.142857-.9642857v-.5714286c0 .5325714-.505142.9642857-1.142857.9642857-.637714 0-1.142857-.4317143-1.142857-.9642857zm3.142857 1.2857143c.488.7371429.202 1.46.392857 2.2142857.193143.7531433.478286 1.0080003 1.071429 1.0000003a1.1348571 1.1348571 0 0 0 1.073661-1.4196431 1.1348571 1.1348571 0 0 1 -1.073661.8482141c-.593143.008-.878286-.246857-1.071429-.9999999-.132085-.5220164-.046156-1.0284822-.136161-1.5357142-.089273-.0350958-.16346-.0724885-.256696-.1071429zm-4.3214283 3.75c-.8925714 0-3.45-.06629-4.5357143 1.142857v.571429c1.0857143-1.209143 3.6431429-1.142857 4.5357143-1.142857.8948572 0 3.6294283.347428 4.5357143 1.142857v-.571429c-.906286-.795428-3.6408571-1.142857-4.5357143-1.142857z" fill="#fffcf3" opacity=".3"/><path d="m5.7142857 4c-.6377143 0-1.1428571.4685714-1.1428571 1v.5714286c0-.5314286.5051428-1 1.1428571-1s1.1785714.4685714 1.1785714 1v-.5714286c0-.5314286-.5408571-1-1.1785714-1zm4.5714283 0c-.637714 0-1.142857.4317143-1.142857.9642857v.5714286c0-.5325714.505143-.9642857 1.142857-.9642857.637715 0 1.142857.4317143 1.142857.9642857v-.5714286c0-.5325714-.505142-.9642857-1.142857-.9642857zm2 2.6071429c.150271.2269904.216649.4528803.256696.6785714 1.232646.4845832 2.094656 1.0114584 2.279019 1.6785714a1.1348571 1.1348571 0 0 1 .0022.00893 1.1348571 1.1348571 0 0 0 -.0022-.5803572c-.197715-.7154299-1.155143-1.2725728-2.535715-1.7857156zm3.700893 1.0446428a8 8 0 0 1 -7.986607 7.7767853 8 8 0 0 1 -7.9866071-7.6517853 8 8 0 0 0 7.9866071 8.2232143 8 8 0 0 0 7.986607-8.3482143zm-8.0223213 2.0290178c-2.9588571 0-4.5357143.9342855-4.5357143 1.7857145v.571428c0-.851428 1.5768572-1.785714 4.5357143-1.785714 2.9577143 0 4.5357143 1.118339 4.5357143 1.783482v-.571428c0-.665143-1.578-1.7834825-4.5357143-1.7834825z" fill="#050400" opacity=".2"/></g></svg>

<?xml version="1.0" encoding="UTF-8" standalone="no"?>
<svg
   xmlns:dc="http://purl.org/dc/elements/1.1/"
   xmlns:cc="http://creativecommons.org/ns#"
   xmlns:rdf="http://www.w3.org/1999/02/22-rdf-syntax-ns#"
   xmlns:svg="http://www.w3.org/2000/svg"
   xmlns="http://www.w3.org/2000/svg"
   xmlns:sodipodi="http://sodipodi.sourceforge.net/DTD/sodipodi-0.dtd"
   xmlns:inkscape="http://www.inkscape.org/namespaces/inkscape"
   width="16"
   height="16"
   version="1.1"
   id="svg4"
   sodipodi:docname="face-crying.svg"
   inkscape:version="0.92.4 (5da689c313, 2019-01-14)">
  <metadata
     id="metadata10">
    <rdf:RDF>
      <cc:Work
         rdf:about="">
        <dc:format>image/svg+xml</dc:format>
        <dc:type
           rdf:resource="http://purl.org/dc/dcmitype/StillImage" />
      </cc:Work>
    </rdf:RDF>
  </metadata>
  <defs
     id="defs8" />
  <sodipodi:namedview
     pagecolor="#ffffff"
     bordercolor="#666666"
     borderopacity="1"
     objecttolerance="10"
     gridtolerance="10"
     guidetolerance="10"
     inkscape:pageopacity="0"
     inkscape:pageshadow="2"
     inkscape:window-width="1920"
     inkscape:window-height="1016"
     id="namedview6"
     showgrid="false"
     inkscape:zoom="59.928571"
     inkscape:cx="4.829559"
     inkscape:cy="8"
     inkscape:window-x="0"
     inkscape:window-y="27"
     inkscape:window-maximized="1"
     inkscape:current-layer="svg4" />
  <ellipse
     style="opacity:1;fill:#37a6e6;fill-opacity:1;stroke-width:1.22716725"
     id="path831"
     cx="9.300415"
     cy="12.751357"
     rx="1.5183474"
     ry="2.0176053"
     transform="matrix(0.94204291,-0.3354924,0.37266056,0.92796773,0,0)" />
  <path
     d="M 8,0 A 8,8 0 1 0 8,16 8,8 0 0 0 8,0 Z M 5.7142857,4.5714286 c 0.6377143,0 1.1782857,0.4685714 1.1782857,1 V 6.464 c 0,0.5325714 -0.5405714,0.9645714 -1.1782857,0.9645714 -0.6377143,0 -1.1428571,-0.432 -1.1428571,-0.9645714 V 5.5714286 c 0,-0.5314286 0.5051428,-1 1.1428571,-1 z m 4.5714283,0 c 0.637715,0 1.142857,0.432 1.142857,0.9645714 v 0.928 c 0,0.5325714 -0.505142,0.9645714 -1.142857,0.9645714 -0.637714,0 -1.142857,-0.432 -1.142857,-0.9645714 V 5.536 c 0,-0.5325714 0.505143,-0.9645714 1.142857,-0.9645714 z m 2,2.6068571 c 1.380572,0.5131429 2.338286,1.0708572 2.536,1.7862857 a 1.1348571,1.1348571 0 0 1 -1.072,1.4285716 C 13.156571,10.401143 12.872,10.146286 12.678857,9.3931429 12.488,8.6388571 12.773714,7.9154286 12.285714,7.1782857 Z M 7.9645714,10.251429 c 2.9577146,0 4.5359996,1.12 4.5359996,1.785142 v 0.606858 C 11.594286,11.848 8.8582857,11.500571 7.9634286,11.500571 c -0.8925715,0 -3.4491429,-0.06629 -4.5348572,1.142858 v -0.605715 c 0,-0.851428 1.5771429,-1.786285 4.536,-1.786285 z"
     id="path2"
     style="fill:#fdc92b;fill-opacity:1;stroke-width:1.14285719"
     inkscape:connector-curvature="0" />
  <path
     style="opacity:0.3;fill:#fffcf3;fill-opacity:1;stroke-width:1.14285719"
     d="M 8,0 A 8,8 0 0 0 0.0133929,8.3482143 8,8 0 0 1 8,0.57142857 8,8 0 0 1 15.986607,8.2232143 8,8 0 0 0 8,0 Z M 4.5714286,6.4642857 V 7.0357143 C 4.5714286,7.5682857 5.0765714,8 5.7142857,8 6.352,8 6.8928571,7.5682857 6.8928571,7.0357143 V 6.4642857 c 0,0.5325714 -0.5408571,0.9642857 -1.1785714,0.9642857 -0.6377143,0 -1.1428571,-0.4317143 -1.1428571,-0.9642857 z m 4.5714284,0 V 7.0357143 C 9.142857,7.5682857 9.648,8 10.285714,8 10.923429,8 11.428571,7.5682857 11.428571,7.0357143 V 6.4642857 c 0,0.5325714 -0.505142,0.9642857 -1.142857,0.9642857 -0.637714,0 -1.142857,-0.4317143 -1.142857,-0.9642857 z M 12.285714,7.75 c 0.488,0.7371429 0.202,1.46 0.392857,2.2142857 0.193143,0.7531433 0.478286,1.0080003 1.071429,1.0000003 A 1.1348571,1.1348571 0 0 0 14.823661,9.5446429 1.1348571,1.1348571 0 0 1 13.75,10.392857 C 13.156857,10.400857 12.871714,10.146 12.678571,9.3928571 12.546486,8.8708407 12.632415,8.3643749 12.54241,7.8571429 12.453137,7.8220471 12.37895,7.7846544 12.285714,7.75 Z M 7.9642857,11.5 c -0.8925714,0 -3.45,-0.06629 -4.5357143,1.142857 v 0.571429 c 1.0857143,-1.209143 3.6431429,-1.142857 4.5357143,-1.142857 0.8948572,0 3.6294283,0.347428 4.5357143,1.142857 V 12.642857 C 11.593714,11.847429 8.8591429,11.5 7.9642857,11.5 Z"
     id="path833"
     inkscape:connector-curvature="0" />
  <path
     style="opacity:0.2;fill:#050400;fill-opacity:1;stroke-width:1.14285719"
     d="M 5.7142857,4 C 5.0765714,4 4.5714286,4.4685714 4.5714286,5 v 0.5714286 c 0,-0.5314286 0.5051428,-1 1.1428571,-1 0.6377143,0 1.1785714,0.4685714 1.1785714,1 V 5 C 6.8928571,4.4685714 6.352,4 5.7142857,4 Z M 10.285714,4 C 9.648,4 9.142857,4.4317143 9.142857,4.9642857 v 0.5714286 c 0,-0.5325714 0.505143,-0.9642857 1.142857,-0.9642857 0.637715,0 1.142857,0.4317143 1.142857,0.9642857 V 4.9642857 C 11.428571,4.4317143 10.923429,4 10.285714,4 Z m 2,2.6071429 c 0.150271,0.2269904 0.216649,0.4528803 0.256696,0.6785714 1.232646,0.4845832 2.094656,1.0114584 2.279019,1.6785714 a 1.1348571,1.1348571 0 0 1 0.0022,0.00893 1.1348571,1.1348571 0 0 0 -0.0022,-0.5803572 C 14.623714,7.6774286 13.666286,7.1202857 12.285714,6.6071429 Z m 3.700893,1.0446428 A 8,8 0 0 1 8,15.428571 8,8 0 0 1 0.0133929,7.7767857 8,8 0 0 0 8,16 8,8 0 0 0 15.986607,7.6517857 Z M 7.9642857,9.6808035 c -2.9588571,0 -4.5357143,0.9342855 -4.5357143,1.7857145 v 0.571428 c 0,-0.851428 1.5768572,-1.785714 4.5357143,-1.785714 C 10.922,10.252232 12.5,11.370571 12.5,12.035714 v -0.571428 c 0,-0.665143 -1.578,-1.7834825 -4.5357143,-1.7834825 z"
     id="path838"
     inkscape:connector-curvature="0" />
</svg>
